assets/customers/dark/autodesk/autodesk_middle.svg

<svg xmlns="http://www.w3.org/2000/svg" width="104" height="72" viewBox="0 0 104 72" fill="none">
  <g filter="url(#filter0_b_10988_5598)">
    <path d="M0.558704 72L64.2419 31.9009H97.2775C97.5311 31.9009 97.7823 31.9515 98.0165 32.0499C98.2508 32.1483 98.4636 32.2925 98.6427 32.4743C98.8219 32.656 98.9638 32.8717 99.0605 33.1091C99.1571 33.3465 99.2065 33.6008 99.2059 33.8575C99.2322 34.1906 99.1606 34.5241 99.0003 34.8162C98.84 35.1083 98.5981 35.346 98.3048 35.4994L67.0264 54.4817C64.9944 55.7132 64.2825 58.1852 64.2825 60.0369L64.2509 72H104V2.47422C104.001 2.14079 103.935 1.81063 103.806 1.50369C103.678 1.19674 103.489 0.919375 103.251 0.688339C103.014 0.457303 102.733 0.277391 102.425 0.159467C102.116 0.0415436 101.788 -0.0119453 101.459 0.00223136H63.53L0 39.928V72H0.558704Z" fill="#1A1B1D" fill-opacity="0.48"/>
  </g>
  <g filter="url(#filter1_b_10988_5598)">
    <path fill-rule="evenodd" clip-rule="evenodd" d="M0.558704 72L1.39663 71.4724L0.863799 70.6262L0.273667 70.9977H0V72H0.558704ZM0 68.9932H1V66.9887H0V68.9932ZM0 64.9842H1V62.9797H0V64.9842ZM0 60.9753H1V58.9708H0V60.9753ZM0 56.9663H1V54.9618H0V56.9663ZM0 52.9573H1V50.9528H0V52.9573ZM0 48.9483H1V46.9438H0V48.9483ZM0 44.9393H1V42.9348H0V44.9393ZM0 40.9303H1V40.4806L1.36802 40.2494L0.835922 39.4027L0 39.928V40.9303ZM2.50776 38.352L3.03986 39.1987L4.71171 38.148L4.17961 37.3013L2.50776 38.352ZM5.85145 36.2506L6.38355 37.0973L8.05539 36.0466L7.52329 35.2L5.85145 36.2506ZM9.19513 34.1493L9.72723 34.996L11.3991 33.9453L10.867 33.0986L9.19513 34.1493ZM12.5388 32.0479L13.0709 32.8946L14.7428 31.8439L14.2107 30.9972L12.5388 32.0479ZM15.8825 29.9466L16.4146 30.7932L18.0864 29.7426L17.5543 28.8959L15.8825 29.9466ZM19.2262 27.8452L19.7583 28.6919L21.4301 27.6412L20.898 26.7945L19.2262 27.8452ZM22.5699 25.7439L23.102 26.5905L24.7738 25.5399L24.2417 24.6932L22.5699 25.7439ZM25.9136 23.6425L26.4457 24.4892L28.1175 23.4385L27.5854 22.5918L25.9136 23.6425ZM29.2572 21.5411L29.7893 22.3878L31.4612 21.3371L30.9291 20.4905L29.2572 21.5411ZM32.6009 19.4398L33.133 20.2865L34.8049 19.2358L34.2728 18.3891L32.6009 19.4398ZM35.9446 17.3384L36.4767 18.1851L38.1486 17.1344L37.6164 16.2878L35.9446 17.3384ZM39.2883 15.2371L39.8204 16.0838L41.4922 15.0331L40.9601 14.1864L39.2883 15.2371ZM42.632 13.1357L43.1641 13.9824L44.8359 12.9317L44.3038 12.085L42.632 13.1357ZM45.9757 11.0344L46.5078 11.881L48.1796 10.8304L47.6475 9.98369L45.9757 11.0344ZM49.3193 8.93301L49.8514 9.77969L51.5233 8.72901L50.9912 7.88233L49.3193 8.93301ZM52.663 6.83165L53.1951 7.67833L54.867 6.62766L54.3349 5.78098L52.663 6.83165ZM56.0067 4.73029L56.5388 5.57698L58.2107 4.5263L57.6786 3.67962L56.0067 4.73029ZM59.3504 2.62894L59.8825 3.47562L61.5543 2.42494L61.0222 1.57826L59.3504 2.62894ZM62.6941 0.527578L63.2262 1.37426L63.8182 1.00223H64.5836V0.00223136H63.53L62.6941 0.527578ZM66.6907 0.00223136V1.00223H68.7979V0.00223136H66.6907ZM70.9051 0.00223136V1.00223H73.0122V0.00223136H70.9051ZM75.1194 0.00223136V1.00223H77.2265V0.00223136H75.1194ZM79.3337 0.00223136V1.00223H81.4408V0.00223136H79.3337ZM83.548 0.00223136V1.00223H85.6551V0.00223136H83.548ZM87.7623 0.00223136V1.00223H89.8694V0.00223136H87.7623ZM91.9766 0.00223136V1.00223H94.0838V0.00223136H91.9766ZM96.1909 0.00223136V1.00223H98.2981V0.00223136H96.1909ZM100.405 0.00223136V1.00223H101.48L101.502 1.0013C101.55 0.999234 101.598 0.999632 101.646 1.00247L101.705 0.00422379C101.623 -0.000629002 101.541 -0.00130993 101.459 0.00223136H100.405ZM102.19 0.0832826L101.93 1.04874C101.976 1.06125 102.022 1.07614 102.067 1.0934C102.112 1.1107 102.157 1.13029 102.2 1.15208L102.65 0.2594C102.577 0.222326 102.502 0.188958 102.425 0.159467C102.348 0.130044 102.269 0.104633 102.19 0.0832826ZM103.066 0.525274L102.444 1.30872C102.482 1.33888 102.519 1.37105 102.554 1.40514C102.589 1.43935 102.623 1.47532 102.654 1.5129L103.42 0.870129C103.367 0.806809 103.311 0.746125 103.251 0.688339C103.192 0.630752 103.13 0.576341 103.066 0.525274ZM103.699 1.27992L102.82 1.7567C102.844 1.79998 102.865 1.84454 102.884 1.89026C102.903 1.93608 102.92 1.98281 102.935 2.03025L103.891 1.73783C103.867 1.65854 103.839 1.58039 103.806 1.50369C103.774 1.42717 103.738 1.3525 103.699 1.27992ZM103.988 2.22553L102.993 2.32239C102.998 2.37184 103 2.42161 103 2.4715V3.49666H104V2.47422C104 2.39102 103.996 2.30802 103.988 2.22553ZM104 5.54153H103V7.58641H104V5.54153ZM104 9.63128H103V11.6762H104V9.63128ZM104 13.721H103V15.7659H104V13.721ZM104 17.8108H103V19.8557H104V17.8108ZM104 21.9005H103V23.9454H104V21.9005ZM104 25.9903H103V28.0352H104V25.9903ZM104 30.08H103V32.1249H104V30.08ZM104 34.1698H103V36.2147H104V34.1698ZM104 38.2595H103V40.3044H104V38.2595ZM104 42.3493H103V44.3942H104V42.3493ZM104 46.439H103V48.4839H104V46.439ZM104 50.5288H103V52.5737H104V50.5288ZM104 54.6185H103V56.6634H104V54.6185ZM104 58.7083H103V60.7532H104V58.7083ZM104 62.7981H103V64.8429H104V62.7981ZM104 66.8878H103V68.9327H104V66.8878ZM104 70.9776H103V72H104V70.9776ZM101.019 72V71H99.0314V72H101.019ZM97.0439 72V71H95.0564V72H97.0439ZM93.069 72V71H91.0815V72H93.069ZM89.0941 72V71H87.1066V72H89.0941ZM85.1192 72V71H83.1317V72H85.1192ZM81.1443 72V71H79.1568V72H81.1443ZM77.1694 72V71H75.1819V72H77.1694ZM73.1945 72V71H71.207V72H73.1945ZM69.2196 72V71H67.2321V72H69.2196ZM65.2509 72L65.2535 71.0057L65.2446 71.0057V71H64.2536L64.2509 72L64.2524 72L65.2509 72ZM64.2588 69.0092L65.2588 69.0118L65.2641 67.018L64.2641 67.0154L64.2588 69.0092ZM64.2693 65.0215L65.2693 65.0241L65.2746 63.0303L64.2746 63.0276L64.2693 65.0215ZM64.2798 61.0338L65.2798 61.0364L65.2825 60.0395V60.0369C65.2825 59.8139 65.2944 59.5785 65.3202 59.3356L64.3257 59.2303C64.2963 59.5078 64.2825 59.7784 64.2825 60.0369L64.2798 61.0338ZM64.6584 57.6506L65.61 57.958C65.7514 57.5202 65.94 57.0981 66.1798 56.7128L65.3307 56.1845C65.0427 56.6474 64.8216 57.1454 64.6584 57.6506ZM66.3728 54.9564L67.0254 55.7141C67.1853 55.5764 67.3581 55.45 67.5447 55.3369L68.4141 54.8093L67.8953 53.9544L67.0264 54.4817C66.7912 54.6243 66.5736 54.7835 66.3728 54.9564ZM69.6329 52.8999L70.1518 53.7547L71.8895 52.7002L71.3706 51.8453L69.6329 52.8999ZM73.1083 50.7907L73.6271 51.6456L75.3648 50.591L74.846 49.7361L73.1083 50.7907ZM76.5837 48.6816L77.1025 49.5365L78.8402 48.4819L78.3214 47.627L76.5837 48.6816ZM80.0591 46.5724L80.5779 47.4273L82.3156 46.3727L81.7968 45.5179L80.0591 46.5724ZM83.5345 44.4633L84.0533 45.3182L85.791 44.2636L85.2721 43.4087L83.5345 44.4633ZM87.0098 42.3541L87.5286 43.209L89.2663 42.1545L88.7475 41.2996L87.0098 42.3541ZM90.4852 40.245L91.004 41.0999L92.7417 40.0453L92.2229 39.1904L90.4852 40.245ZM93.9606 38.1359L94.4794 38.9907L96.2171 37.9362L95.6983 37.0813L93.9606 38.1359ZM97.436 36.0267L97.9548 36.8816L98.7997 36.3688C98.9056 36.3116 99.0071 36.2475 99.1037 36.1771L98.5146 35.369C98.4482 35.4174 98.3781 35.4611 98.3048 35.4994L97.436 36.0267ZM98.866 35.0236L99.6636 35.6268C99.7423 35.5227 99.8137 35.4126 99.877 35.2973C99.9405 35.1816 99.9952 35.0618 100.041 34.9391L99.1036 34.5903C99.0748 34.6678 99.0403 34.7433 99.0003 34.8162C98.9604 34.8888 98.9155 34.9581 98.866 35.0236ZM99.2075 34.1059L100.205 34.1721C100.213 34.0552 100.213 33.9376 100.206 33.8199C100.205 33.7368 100.2 33.6539 100.193 33.5713L99.1971 33.666C99.2031 33.7295 99.2061 33.7934 99.2059 33.8575C99.2125 33.9405 99.2129 34.0235 99.2075 34.1059ZM99.124 33.29L100.082 33.0048C100.055 32.9125 100.023 32.8215 99.9866 32.732C99.9503 32.6427 99.9097 32.5554 99.865 32.4704L98.9799 32.9358C99.0095 32.9921 99.0364 33.0499 99.0605 33.1091C99.0846 33.1684 99.1058 33.2288 99.124 33.29ZM98.77 32.6168L99.5477 31.9882C99.4872 31.9132 99.4228 31.8412 99.3549 31.7723C99.2873 31.7036 99.2164 31.6385 99.1426 31.577L98.5027 32.3455C98.5513 32.386 98.5981 32.4289 98.6427 32.4742C98.6875 32.5197 98.73 32.5673 98.77 32.6168ZM98.1881 32.1322L98.6647 31.2531C98.58 31.2072 98.4929 31.1654 98.4038 31.1279C98.3148 31.0906 98.2242 31.0577 98.1323 31.0294L97.8383 31.9852C97.8986 32.0038 97.9581 32.0254 98.0165 32.0499C98.0751 32.0745 98.1324 32.102 98.1881 32.1322ZM97.4669 31.9103L97.5663 30.9153C97.4705 30.9057 97.3741 30.9009 97.2775 30.9009H96.2452V31.9009H97.2775C97.3409 31.9009 97.4041 31.9041 97.4669 31.9103ZM94.1804 31.9009V30.9009H92.1157V31.9009H94.1804ZM90.051 31.9009V30.9009H87.9863V31.9009H90.051ZM85.9215 31.9009V30.9009H83.8568V31.9009H85.9215ZM81.7921 31.9009V30.9009H79.7274V31.9009H81.7921ZM77.6626 31.9009V30.9009H75.5979V31.9009H77.6626ZM73.5332 31.9009V30.9009H71.4685V31.9009H73.5332ZM69.4037 31.9009V30.9009H67.339V31.9009H69.4037ZM3.07251 70.4171L2.53967 69.5709L4.21554 68.5157L4.74838 69.3619L3.07251 70.4171ZM6.42425 68.3067L5.89141 67.4604L7.56729 66.4052L8.10012 67.2514L6.42425 68.3067ZM9.77599 66.1962L9.24316 65.35L10.919 64.2947L11.4519 65.1409L9.77599 66.1962ZM13.1277 64.0857L12.5949 63.2395L14.2708 62.1842L14.8036 63.0305L13.1277 64.0857ZM16.4795 61.9752L15.9467 61.129L17.6225 60.0738L18.1554 60.92L16.4795 61.9752ZM19.8312 59.8647L19.2984 59.0185L20.9743 57.9633L21.5071 58.8095L19.8312 59.8647ZM23.183 57.7543L22.6502 56.908L24.326 55.8528L24.8589 56.699L23.183 57.7543ZM26.5347 55.6438L26.0019 54.7976L27.6778 53.7423L28.2106 54.5885L26.5347 55.6438ZM63.404 32.4285L64.2419 31.9009H65.2743V30.9009H63.9533L62.8711 31.5823L63.404 32.4285ZM61.7281 33.4838L60.0522 34.539L59.5194 33.6928L61.1953 32.6375L61.7281 33.4838ZM58.3764 35.5942L57.8435 34.748L56.1676 35.8033L56.7005 36.6495L58.3764 35.5942ZM55.0246 37.7047L54.4918 36.8585L52.8159 37.9137L53.3487 38.76L55.0246 37.7047ZM51.6729 39.8152L51.14 38.969L49.4641 40.0242L49.997 40.8704L51.6729 39.8152ZM48.3211 41.9257L47.7883 41.0795L46.1124 42.1347L46.6452 42.9809L48.3211 41.9257ZM44.9694 44.0361L44.4365 43.1899L42.7607 44.2452L43.2935 45.0914L44.9694 44.0361ZM41.6176 46.1466L41.0848 45.3004L39.4089 46.3556L39.9417 47.2019L41.6176 46.1466ZM38.2659 48.2571L37.733 47.4109L36.0572 48.4661L36.59 49.3123L38.2659 48.2571ZM34.9141 50.3676L34.3813 49.5214L32.7054 50.5766L33.2382 51.4228L34.9141 50.3676ZM31.5624 52.4781L31.0295 51.6318L29.3537 52.6871L29.8865 53.5333L31.5624 52.4781Z" fill="#6E56CF"/>
  </g>
  <defs>
    <filter id="filter0_b_10988_5598" x="-12" y="-12" width="128" height="96" filterUnits="userSpaceOnUse" color-interpolation-filters="sRGB">
      <feFlood flood-opacity="0" result="BackgroundImageFix"/>
      <feGaussianBlur in="BackgroundImageFix" stdDeviation="6"/>
      <feComposite in2="SourceAlpha" operator="in" result="effect1_backgroundBlur_10988_5598"/>
      <feBlend mode="normal" in="SourceGraphic" in2="effect1_backgroundBlur_10988_5598" result="shape"/>
    </filter>
    <filter id="filter1_b_10988_5598" x="-12" y="-12" width="128" height="96" filterUnits="userSpaceOnUse" color-interpolation-filters="sRGB">
      <feFlood flood-opacity="0" result="BackgroundImageFix"/>
      <feGaussianBlur in="BackgroundImageFix" stdDeviation="6"/>
      <feComposite in2="SourceAlpha" operator="in" result="effect1_backgroundBlur_10988_5598"/>
      <feBlend mode="normal" in="SourceGraphic" in2="effect1_backgroundBlur_10988_5598" result="shape"/>
    </filter>
  </defs>
</svg>

<svg xmlns="http://www.w3.org/2000/svg" width="104" height="72" fill="none" viewBox="0 0 104 72"><g filter="url(#a)"><path fill="#1A1B1D" fill-opacity=".48" d="m.559 72 63.683-40.1h33.036a1.9 1.9 0 0 1 1.365.574 1.95 1.95 0 0 1 .563 1.384 1.71 1.71 0 0 1-.901 1.641L67.026 54.482c-2.032 1.231-2.743 3.703-2.743 5.555L64.25 72H104V2.474a2.5 2.5 0 0 0-.749-1.786 2.43 2.43 0 0 0-1.792-.686H63.53L0 39.928V72z"/></g><g filter="url(#b)"><path fill="#6E56CF" fill-rule="evenodd" d="m.559 72 .838-.528-.533-.846-.59.372H0V72zM0 68.993h1V66.99H0zm0-4.009h1V62.98H0zm0-4.009h1v-2.004H0zm0-4.009h1v-2.004H0zm0-4.009h1v-2.004H0zm0-4.009h1v-2.004H0zm0-4.009h1v-2.004H0zm0-4.009h1v-.45l.368-.23-.532-.847-.836.525zm2.508-2.578.532.847 1.672-1.051-.532-.847zm3.343-2.101.533.846 1.671-1.05-.532-.847zm3.344-2.102.532.847 1.672-1.05-.532-.847zm3.344-2.101.532.847 1.672-1.051-.532-.847zm3.344-2.101.532.846 1.671-1.05-.532-.847zm3.343-2.102.532.847 1.672-1.05-.532-.848zm3.344-2.101.532.846 1.672-1.05-.532-.847zm3.344-2.102.532.847 1.671-1.05-.532-.847zm3.343-2.1.532.846 1.672-1.05-.532-.848zm3.344-2.102.532.846 1.672-1.05-.532-.847zm3.344-2.102.532.847 1.672-1.05-.533-.847zm3.343-2.1.532.846 1.672-1.05-.532-.848zm3.344-2.102.532.846 1.672-1.05-.532-.847zm3.344-2.102.532.847 1.672-1.05-.532-.847zm3.343-2.101.532.847 1.672-1.051-.532-.847zm3.344-2.101.532.846 1.672-1.05-.532-.847zm3.344-2.102.532.847 1.672-1.05-.532-.847zm3.343-2.1.532.847 1.672-1.051-.532-.847zM62.694.528l.532.846.592-.372h.766v-1H63.53zm3.997-.526v1h2.107v-1zm4.214 0v1h2.107v-1zm4.214 0v1h2.108v-1zm4.215 0v1h2.107v-1zm4.214 0v1h2.107v-1zm4.214 0v1h2.107v-1zm4.215 0v1h2.107v-1zm4.214 0v1h2.107v-1zm4.214 0v1h1.097a1 1 0 0 1 .144 0l.059-.998a2 2 0 0 0-.246-.002zm1.785.081-.26.966a1.4 1.4 0 0 1 .27.103l.45-.893a2.4 2.4 0 0 0-.46-.176m.876.442-.622.784a1.5 1.5 0 0 1 .21.204l.766-.643a2.3 2.3 0 0 0-.354-.345m.633.755-.879.477a1.3 1.3 0 0 1 .115.273l.956-.292a2.6 2.6 0 0 0-.192-.458m.289.946-.995.096q.007.075.007.15v1.025h1V2.474q0-.125-.012-.248M104 5.542h-1v2.044h1zm0 4.09h-1v2.044h1zm0 4.089h-1v2.045h1zm0 4.09h-1v2.045h1zm0 4.09h-1v2.044h1zm0 4.09h-1v2.044h1zm0 4.089h-1v2.045h1zm0 4.09h-1v2.045h1zm0 4.09h-1v2.044h1zm0 4.09h-1v2.044h1zm0 4.089h-1v2.045h1zm0 4.09h-1v2.045h1zm0 4.09h-1v2.044h1zm0 4.09h-1v2.044h1zm0 4.09h-1v2.044h1zm0 4.089h-1v2.045h1zm0 4.09h-1V72h1zM101.019 72v-1h-1.988v1zm-3.975 0v-1h-1.988v1zm-3.975 0v-1h-1.987v1zm-3.975 0v-1h-1.987v1zm-3.975 0v-1h-1.987v1zm-3.975 0v-1h-1.987v1zm-3.975 0v-1h-1.987v1zm-3.974 0v-1h-1.988v1zm-3.975 0v-1h-1.988v1zm-3.97 0 .004-.994h-.01V71h-.99l-.003 1h1m-.991-2.99 1 .002.005-1.994-1-.003zm.01-3.989 1 .003.006-1.994-1-.002zm.01-3.987 1 .002.004-.997v-.002q-.001-.336.037-.701l-.994-.106q-.044.418-.043.807zm.38-3.383.951.307c.141-.438.33-.86.57-1.245l-.85-.529a6.6 6.6 0 0 0-.672 1.467m1.714-2.695.652.758q.24-.207.52-.377l.87-.528-.52-.855-.869.528a5 5 0 0 0-.653.474m3.26-2.056.519.855 1.737-1.055-.518-.855zm3.475-2.11.52.856 1.737-1.055-.519-.855zm3.476-2.108.519.854 1.737-1.054-.519-.855zm3.475-2.11.519.855 1.738-1.054-.52-.855zm3.475-2.109.52.855 1.737-1.054-.519-.855zm3.476-2.109.519.855 1.737-1.055-.519-.854zm3.475-2.109.519.855 1.738-1.055-.52-.855zm3.476-2.11.518.856 1.738-1.055-.519-.855zm3.475-2.108.519.855.845-.513q.159-.086.304-.192l-.59-.808a2 2 0 0 1-.21.13zm1.43-1.003.798.603a2.7 2.7 0 0 0 .377-.688l-.937-.349a1.7 1.7 0 0 1-.238.434m.341-.918.998.066q.012-.175.001-.352a3 3 0 0 0-.013-.249l-.996.095q.01.095.009.192.01.125.001.248m-.083-.816.958-.285a3 3 0 0 0-.217-.535l-.885.466a2 2 0 0 1 .144.354m-.354-.673.778-.629a3 3 0 0 0-.405-.411l-.64.768a2 2 0 0 1 .267.272m-.582-.485.477-.879a3 3 0 0 0-.533-.224l-.294.956a2 2 0 0 1 .35.147m-.721-.222.1-.995a3 3 0 0 0-.29-.014h-1.032v1h1.032q.096 0 .19.01m-3.287-.01v-1h-2.064v1zm-4.129 0v-1h-2.065v1zm-4.13 0v-1h-2.064v1zm-4.129 0v-1h-2.065v1zm-4.13 0v-1h-2.064v1zm-4.129 0v-1H71.47v1zm-4.13 0v-1H67.34v1zM3.074 70.418l-.533-.846 1.676-1.055.532.846zm3.351-2.11-.533-.847 1.676-1.055.533.846zm3.352-2.11-.533-.847 1.676-1.055.533.846zm3.352-2.111-.533-.846 1.676-1.056.533.847zm3.352-2.11-.533-.847 1.675-1.055.533.846zm3.351-2.111-.533-.846 1.676-1.056.533.846zm3.352-2.11-.533-.847 1.676-1.055.533.846zm3.352-2.111-.533-.846 1.676-1.056.533.847zM63.405 32.43l.838-.528h1.032v-1h-1.32l-1.083.681zm-1.676 1.055-1.676 1.055-.533-.846 1.676-1.055zm-3.352 2.11-.532-.846-1.676 1.055.532.847zm-3.351 2.11-.533-.846-1.676 1.056.533.846zm-3.352 2.111-.533-.846-1.676 1.055.533.846zm-3.352 2.11-.533-.845-1.676 1.055.533.846zm-3.352 2.111-.532-.846-1.676 1.055.532.846zm-3.351 2.11-.533-.846-1.676 1.056.533.846zm-3.352 2.111-.533-.846-1.676 1.055.533.846zm-3.352 2.11-.533-.846-1.676 1.056.533.846zm-3.352 2.111-.533-.846-1.675 1.055.533.846z" clip-rule="evenodd"/></g><defs><filter id="a" width="128" height="96" x="-12" y="-12" color-interpolation-filters="sRGB" filterUnits="userSpaceOnUse"><feFlood flood-opacity="0" result="BackgroundImageFix"/><feGaussianBlur in="BackgroundImageFix" stdDeviation="6"/><feComposite in2="SourceAlpha" operator="in" result="effect1_backgroundBlur_10988_5598"/><feBlend in="SourceGraphic" in2="effect1_backgroundBlur_10988_5598" result="shape"/></filter><filter id="b" width="128" height="96" x="-12" y="-12" color-interpolation-filters="sRGB" filterUnits="userSpaceOnUse"><feFlood flood-opacity="0" result="BackgroundImageFix"/><feGaussianBlur in="BackgroundImageFix" stdDeviation="6"/><feComposite in2="SourceAlpha" operator="in" result="effect1_backgroundBlur_10988_5598"/><feBlend in="SourceGraphic" in2="effect1_backgroundBlur_10988_5598" result="shape"/></filter></defs></svg>
